!!!COM:	la Rue, Pierre de
!!!CDT:	~1452///-1518/11/20
!!!OPR:	Missa Almana
!!!ONM:	5
!!!OTL:	Agnus Dei
!!!AGN:	Mass; Agnus Dei
!!!SCT:	Rue1002e
!!!SCA:	Rue1002e
!!!voices:	4
!!!voices-OPR:	4
**kern	**kern	**kern	**kern
*staff4	*staff3	*staff2	*staff1
*Ivox	*Ivox	*Ivox	*Ivox
*I"Bassus	*I"Tenor	*I"Contra	*I"Discantus
*I'B	*I'T	*I'C	*I'D
*>[A,B,C]	*>[A,B,C]	*>[A,B,C]	*>[A,B,C]
*>A	*>A	*>A	*>A
*clefF4	*clefGv2	*clefGv2	*clefG2
*k[b-]	*k[b-]	*k[b-]	*k[b-]
*M2/1	*M2/1	*M2/1	*M2/1
*met(C|)	*met(C|)	*met(C|)	*met(C|)
!!incipit: 5
!!section: Agnus Dei I
!!!OMD: Agnus Dei I
=1-	=1-	=1-	=1-
0r	0r	1F	0r
.	.	2F/	.
.	.	4G/	.
.	.	4A/	.
=2	=2	=2	=2
0r	0r	1B-	0r
.	.	1B-	.
=3	=3	=3	=3
0r	0r	1A	1c
.	.	2A/	2c/
.	.	4B-\	4d/
.	.	4c\	4e/
=4	=4	=4	=4
0r	0r	1d	1f
.	.	1d	1f
=5	=5	=5	=5
0r	[0C	2.c\	1e
.	.	4B-\	.
.	.	4A/	2e/
.	.	4G/	.
.	.	[2c\	4f/
.	.	.	4g/
=6	=6	=6	=6
0r	0C_	4c\]	2a/
.	.	4A/	.
.	.	1c	2g/
.	.	.	2e/
.	.	4B-\	[2g/
.	.	4A/	.
=7	=7	=7	=7
0r	0C]	4B-\	4g/]
.	.	4A/	4f/
.	.	4G/	4e/
.	.	4F/	4d/
.	.	1G	1e
=8	=8	=8	=8
0FF	[0F	2r	2.f/
.	.	2F/	.
.	.	.	4e/
.	.	2A/	4d/
.	.	.	4c/
.	.	4B-\	[2f/
.	.	4c\	.
=9	=9	=9	=9
0FF	0F_	2d\	4f/]
.	.	.	4d/
.	.	2c\	1f
.	.	2A/	.
.	.	[2c\	4e/
.	.	.	4d/
=10	=10	=10	=10
0FF	0F_	4c\]	4e/
.	.	4B-\	4d/
.	.	4A/	4c/
.	.	4G/	4B-/
.	.	1A	1c
=11	=11	=11	=11
1BB-	0F_	0B-	0d
1BB-	.	.	.
=12	=12	=12	=12
1AA	0F_	1r	1c
2AA/	.	1c	1A
4BB-/	.	.	.
4C/	.	.	.
=13	=13	=13	=13
1D	0F]	2c\	1r
.	.	4B-\	.
.	.	4A/	.
1D	.	1B-	2.f/
.	.	.	4g/
=14	=14	=14	=14
0C	1E	2c\	2a/
.	.	4B-\	2.g/
.	.	4A/	.
.	2E/	1G	.
.	.	.	4f/
.	4F/	.	4e/
.	4G/	.	4d/
=15	=15	=15	=15
0r	1A	2r	2.c/
.	.	1C	.
.	.	.	4d/
.	1A	.	2e/
.	.	2D/	[2f/
=16	=16	=16	=16
1.FF	2.F/	2C/	2f/]
.	.	2.F/	4e/
.	4G/	.	4d/
.	2A/	.	2c/
.	.	4E/	.
[2BB-/	[2B-\	4D/	[2d/
.	.	4C/	.
=17	=17	=17	=17
2BB-/]	4B-\]	2BB-/	2d/]
.	4A/	.	.
2AA/	2F/	2C/	2c/
1BB-	1G	1D	1B-
=18	=18	=18	=18
1.FF	2.A/	1C	1.A
.	4B-\	.	.
.	2c\	1r	.
[2BB-/	[2d\	.	[2B-/
=19	=19	=19	=19
2BB-/]	2d\]	2r	2B-/]
2AA/	1c	1F	2c/
1BB-	.	.	2d/
.	2B-\	2G/	2d/
=20	=20	=20	=20
1FF	[0c	4.A/	1c
.	.	8G/	.
.	.	2.F/	.
2FF/	.	.	2r
.	.	4E/	.
[2F\	.	[2A/	[2f/
=21	=21	=21	=21
2F\]	0c]	2A/]	2f/]
2E\	.	1G	2g/
1F	.	.	1a
.	.	2F/	.
=22	=22	=22	=22
1C	0r	2G/	2g/
.	.	2A/	2c/
1r	.	2B-\	2d/
.	.	2c\	2e/
=23	=23	=23	=23
0r	0r	2A/	2f/
.	.	1G	2g/
.	.	.	1c
.	.	[2c\	.
=24	=24	=24	=24
0r	0r	2c\]	1d
.	.	2B-\	.
.	.	2c\	2c/
.	.	2F/	2d/
=25	=25	=25	=25
0r	0r	2G/	2e/
.	.	2A/	2f/
.	.	2B-\	2d/
.	.	2c\	[2c/
=26	=26	=26	=26
0r	0r	1F	2c/]
.	.	.	1f
.	.	1G	.
.	.	.	2e/
=27	=27	=27	=27
2r	0r	1F	0f
2.F\	.	.	.
.	.	2r	.
4E\	.	.	.
4D\	.	[2F/	.
4C/	.	.	.
=28	=28	=28	=28
2D\	0r	2F/]	1r
4C/	.	4E/	.
4BB-/	.	4D/	.
1AA	.	2C/	2r
.	.	[2c\	[2a/
=29	=29	=29	=29
1r	[0c	4c\]	4a/]
.	.	4B-\	4g/
.	.	4A/	4f/
.	.	4G/	4e/
[1AA	.	4A/	2f/
.	.	4F/	.
.	.	[2c\	4e/
.	.	.	4d/
=30	=30	=30	=30
1AA]	0c]	4c\]	2c/
.	.	4d\	.
.	.	2.e\	2.cc\
[1C	.	.	.
.	.	4d\	4b-\
.	.	4c\	4a/
.	.	4B-\	4g/
=31	=31	=31	=31
1C]	0c	2c\	2a/
.	.	4B-\	4g/
.	.	4A/	4f/
1C	.	2.G/	1e
.	.	8F/L	.
.	.	8E/J	.
=32	=32	=32	=32
1r	[0d	0D	0f
1BB-	.	.	.
=33	=33	=33	=33
1BB-	0d]	2r	2r
.	.	2B-\	2f/
1BB-	.	1B-	2g/
.	.	.	[2b-\
=34	=34	=34	=34
1BB-	0d	1B-	4b-\]
.	.	.	4a/
.	.	.	2.g/
1BB-	.	1B-	.
.	.	.	4f/
.	.	.	4e/
.	.	.	4d/
=35	=35	=35	=35
1C	0c	1G	0e
2r	.	2r	.
[2C/	.	[2E/	.
=36	=36	=36	=36
2C/]	2r	2E/]	0r
2AA/	2F/	2C/	.
2BB-/	2G/	2D/	.
[2C/	[2A/	2E/	.
=37	=37	=37	=37
4C/]	2A/]	1C	0r
4AA/	.	.	.
2AA/	1F	.	.
1BB-	.	1D	.
.	2G/	.	.
=38	=38	=38	=38
1AA	2A/	1C	0r
.	2F/	.	.
2r	2G/	2r	.
[2C/	[2A/	[2E/	.
=39	=39	=39	=39
2C/]	2A/]	2E/]	0r
2AA/	2F/	2C/	.
2BB-/	2G/	2D/	.
[2C/	2A/	2E/	.
=40	=40	=40	=40
4C/]	2B-\	1C	0r
4AA/	.	.	.
2AA/	1A	.	.
1BB-	.	1D	.
.	2G/	.	.
=41	=41	=41	=41
0AA	2A/	2C/	1r
.	2F/	2.c\	.
.	2E/	.	2r
.	.	4B-\	.
.	[2F/	4A/	[2a/
.	.	4G/	.
=42	=42	=42	=42
2r	2F/]	1F	2a/]
2AA/	2c\	.	2f/
2BB-/	2F/	1r	2g/
2C/	[2c\	.	[2a/
=43	=43	=43	=43
1FF	2c\]	1r	4a/]
.	.	.	4f/
.	4B-\	.	1f
.	4A/	.	.
1C	1G	1c	.
.	.	.	2e/
=44	=44	=44	=44
0r	2r	2A/	2f/
.	2F/	2.c\	2a/
.	2E/	.	2g/
.	.	4B-\	.
.	[2F/	4A/	2f/
.	.	4G/	.
=45	=45	=45	=45
2r	2F/]	2F/	2.cc\
2AA/	2c\	2E/	.
.	.	.	4b-\
2BB-/	2F/	2D/	2a/
2C/	[2c\	2E/	[2g/
=46	=46	=46	=46
1FF	2c\]	2C/	4g/]
.	.	.	4f/
.	4B-\	2.c\	1f
.	4A/	.	.
1C	1G	.	.
.	.	4B-\	.
.	.	4A/	2e/
.	.	4G/	.
=47	=47	=47	=47
0FFl	0Fl	0Al	0fl
!!LO:LB:i:g=z
=48||	=48||	=48||	=48||
*>B	*>B	*>B	*>B
*clefF4	*clefGv2	*clefGv2	*clefG2
*k[b-]	*k[b-]	*k[b-]	*k[b-]
*M2/1	*M2/1	*M2/1	*M2/1
*met(C|)	*met(C|)	*met(C|)	*met(C|)
!!section: Agnus Dei II
!!!OMD: Agnus Dei II
1.F	1F	0r	0r
.	[1c	.	.
4E\	.	.	.
4D\	.	.	.
=49	=49	=49	=49
2E\	1c]	0r	0r
2F\	.	.	.
1D	1d	.	.
=50	=50	=50	=50
1.C	1.e-	0r	1c
.	.	.	[1g
4BB-/	4d\	.	.
4AA/	4c\	.	.
=51	=51	=51	=51
2BB-/	2d\	0r	1g]
2C/	2e-i\	.	.
1AA	1c	.	1a
=52	=52	=52	=52
0GG	2.B-\	0r	1.b-
.	4c\	.	.
.	4d\	.	.
.	4e-i\	.	.
.	[2d\	.	4a/
.	.	.	4g/
=53	=53	=53	=53
2r	4d\]	0r	2a/
.	4A/	.	.
2D\	1d	.	2b-\
1E-i	.	.	1g
.	2c\	.	.
=54	=54	=54	=54
1.D	0d	0r	2r
.	.	.	1f
4C/	.	.	4e/
4BB-/	.	.	4d/
=55	=55	=55	=55
2C/	2r	0r	2e/
2.D\	1B-	.	2f/
.	.	.	2d/
4E\	.	.	.
[2F\	4A/	.	[2c/
.	4G/	.	.
=56	=56	=56	=56
2F\]	2A/	0r	2c/]
2BB-/	2B-\	.	1f
2C/	1G	.	.
2G\	.	.	2e/
=57	=57	=57	=57
2A\	2F/	0r	0f
1B-	1d	.	.
4A\	4c\	.	.
4G\	4B-\	.	.
=58	=58	=58	=58
2A\	2c\	0r	2r
2B-\	2d\	.	1b-
1G	1B-	.	.
.	.	.	4a/
.	.	.	4g/
=59	=59	=59	=59
2F\	2r	0r	2a/
2.G\	1e-i	.	2b-\
.	.	.	2g/
4A\	.	.	.
[2B-\	4d\	.	[2f/
.	4c\	.	.
=60	=60	=60	=60
2B-\]	2d\	0r	2f/]
2E-\	2e-i\	.	1b-
1F	1c	.	.
.	.	.	2a/
=61	=61	=61	=61
0BB-	2r	0r	2.b-\
.	1B-	.	.
.	.	.	4a/
.	.	.	2g/
.	4A/	.	[2f/
.	4G/	.	.
=62	=62	=62	=62
2r	2A/	0r	2f/]
1E-	2B-\	.	2.g/
.	2G/	.	.
.	.	.	4e/
4D\	2F/	.	[2a/
4C/	.	.	.
=63	=63	=63	=63
2D\	4G/	0r	2a/]
.	4F/	.	.
2E-i\	1B-	.	1g
1C	.	.	.
.	2A/	.	4f/
.	.	.	4e-i/
=64	=64	=64	=64
0BB-	2B-\	0r	0d
.	1F	.	.
.	4E/	.	.
.	4D/	.	.
=65	=65	=65	=65
2r	2E/	0r	0r
1BB-	2F/	.	.
.	2D/	.	.
4AA/	[2C/	.	.
4GG/	.	.	.
=66	=66	=66	=66
2AA/	2C/]	0r	1r
2BB-/	1F	.	.
1GG	.	.	1B-
.	2E/	.	.
=67	=67	=67	=67
0FF	2.F/	0r	2.A/
.	4G/	.	4B-/
.	2A/	.	2c/
.	2F/	.	2d/
=68	=68	=68	=68
1r	2G/	0r	4e/
.	.	.	4c/
.	2A/	.	1f
1BB-	2F/	.	.
.	2G/	.	4e/
.	.	.	4d/
=69	=69	=69	=69
2.AA/	0A	0r	2.c/
4BB-/	.	.	4d/
2C/	.	.	2e/
2D\	.	.	2f/
=70	=70	=70	=70
2E\	1r	0r	4g/
.	.	.	4e/
1F	.	.	1a
.	1F	.	.
4E\	.	.	4g/
4D\	.	.	4f/
=71	=71	=71	=71
2.C/	2G/	0r	1e
.	4E/	.	.
4D\	4F/	.	.
2E\	4G/	.	1r
.	4E/	.	.
2F\	2A/	.	.
=72	=72	=72	=72
2G\	2B-\	0r	1r
1A	1c	.	.
.	.	.	1a
4G\	4B-\	.	.
4F\	4A/	.	.
=73	=73	=73	=73
2E\	4B-\	0r	2g/
.	4G/	.	.
2C/	1c	.	2e/
1D	.	.	1f
.	2B-\	.	.
=74	=74	=74	=74
1C	1c	0r	2e/
.	.	.	1c
1r	1F	.	.
.	.	.	4B-/
.	.	.	4A/
=75	=75	=75	=75
1r	2E/	0r	4B-/
.	.	.	4G/
.	2C/	.	1c
2r	1D	.	.
2BB-/	.	.	2B-/
=76	=76	=76	=76
2AA/	2C/	0r	1c
2FF/	1F	.	.
1GG	.	.	2r
.	2E/	.	2g/
=77	=77	=77	=77
1FF	1F	0r	2a/
.	.	.	2.cc\
2r	[1c	.	.
.	.	.	4b-\
[2F\	.	.	[2a/
=78	=78	=78	=78
2F\]	1c]	0r	2a/]
2E\	.	.	2g/
2D\	1d	.	2f/
[2G\	.	.	[2b-\
=79	=79	=79	=79
4G\]	0B-	0r	4b-\]
4F\	.	.	4a/
2.G\	.	.	2b-\
.	.	.	2g/
4F\	.	.	.
4E\	.	.	2f/
4D\	.	.	.
=80	=80	=80	=80
2C/	1c	0r	2e/
2.F\	.	.	2.a/
.	1A	.	.
4E\	.	.	4g/
4D\	.	.	4f/
4C/	.	.	4e/
=81	=81	=81	=81
4BB-/	1B-	0r	2d/
4AA/	.	.	.
2GG/	.	.	1g
2r	1A	.	.
2D\	.	.	2f#i/
=82	=82	=82	=82
2E-i\	[0G	0r	1g
1C	.	.	.
.	.	.	2r
2C/	.	.	2c/
=83	=83	=83	=83
2BB-/	0G_	0r	2d/
1C	.	.	2e/
.	.	.	2c/
4BB-/	.	.	2d/
4AA/	.	.	.
=84	=84	=84	=84
2GG/	0G_	0r	2B-/
4AA/	.	.	2d/
4BB-/	.	.	.
2C/	.	.	2c/
2BB-/	.	.	2d/
=85	=85	=85	=85
2GG/	0G]	0r	2B-/
4AA/	.	.	4c/
4BB-/	.	.	4d/
2C/	.	.	2e-i/
2BB-/	.	.	[2d/
=86	=86	=86	=86
2C/	1r	0r	2d/]
2E-i\	.	.	1c
1D	1F	.	.
.	.	.	2Bni/
=87	=87	=87	=87
1C	1G	0r	1c
1AA	1A	.	2r
.	.	.	2c/
=88	=88	=88	=88
2r	1B-	0r	1d
2GG/	.	.	.
2.C/	1G	.	1e
8BB-/L	.	.	.
8C/J	.	.	.
=89	=89	=89	=89
2D\	2F/	0r	2f/
2C/	2c\	.	4g/
.	.	.	4a/
2GG/	2d\	.	2b-\
2AA/	[2c\	.	[2a/
=90	=90	=90	=90
4FF/	2c\]	0r	4a/]
4GG/	.	.	4g/
4AA/	4B-\	.	1f
4BB-/	4A/	.	.
2.C/	1G	.	.
.	.	.	2e/
8BB-/L	.	.	.
8C/J	.	.	.
=91	=91	=91	=91
2D\	2F/	0r	2f/
2C/	4G/	.	2c/
.	4A/	.	.
2GG/	2B-\	.	2d/
2AA/	[2A/	.	[2c/
=92	=92	=92	=92
4FF/	4A/]	0r	2c/]
4GG/	4G/	.	.
4AA/	1F	.	4B-/
4BB-/	.	.	4A/
1C	.	.	1G
.	2E/	.	.
=93	=93	=93	=93
2FF/	2F/	0r	1A
2C/	4G/	.	.
.	4A/	.	.
2D\	2B-\	.	1r
[2C/	[2A/	.	.
=94	=94	=94	=94
2C/]	4A/]	0r	1A
.	4G/	.	.
4BB-/	1F	.	.
4AA/	.	.	.
1GG	.	.	1B-
.	2E/	.	.
=95	=95	=95	=95
1FF	1.F	0r	1.A
1FF	.	.	.
.	4E/	.	4G/
.	4D/	.	4F/
=96	=96	=96	=96
0C	[0El	0r	[0Gl
=97	=97	=97	=97
0Cl	0E]	0r	0G]
!!LO:LB:i:g=z
=98||	=98||	=98||	=98||
*>C	*>C	*>C	*>C
*clefF4	*clefGv2	*clefGv2	*clefG2
*k[b-]	*k[b-]	*k[b-]	*k[b-]
*M2/1	*M2/1	*M2/1	*M2/1
*met(C|)	*met(C|)	*met(C|)	*met(C|)
!!section: Agnus Dei III
!!!OMD: Agnus Dei III
0FF	[0F	0C	1r
.	.	.	[1c
=99	=99	=99	=99
1FF	0F]	2C/	1c]
.	.	4D/	.
.	.	4E/	.
1FF	.	1F	2c/
.	.	.	4d/
.	.	.	4e/
=100	=100	=100	=100
2FF/	1F	1F	1f
4GG/	.	.	.
4AA/	.	.	.
1BB-	2F/	1D	1f
.	4G/	.	.
.	4A/	.	.
=101	=101	=101	=101
1BB-	1B-	2D/	1d
.	.	4E/	.
.	.	4F/	.
1GG	1B-	1G	2d/
.	.	.	4e/
.	.	.	4f/
=102	=102	=102	=102
2GG/	1G	1G	1g
4AA/	.	.	.
4BB-/	.	.	.
1C	2G/	1E	1g
.	4A/	.	.
.	4B-\	.	.
=103	=103	=103	=103
1C	1c	2E/	1e
.	.	4F/	.
.	.	4G/	.
1AA	1c	1A	2e/
.	.	.	4f/
.	.	.	4g/
=104	=104	=104	=104
2AA/	1A	4A/	1a
.	.	4G/	.
4BB-/	.	4F/	.
4C/	.	4E/	.
1D	2A/	1F	4a/
.	.	.	4g/
.	4B-\	.	4f/
.	4c\	.	4e/
=105	=105	=105	=105
4D\	1d	0B-	0f
4C/	.	.	.
4BB-/	.	.	.
4AA/	.	.	.
1BB-	1d	.	.
=106	=106	=106	=106
[0C	[0c	1G	1e
.	.	2r	2r
.	.	2c\	2e/
=107	=107	=107	=107
0C]	0c]	2.e\	2.g/
.	.	4d\	4f/
.	.	4e\	4g/
.	.	4d\	4f/
.	.	4c\	4e/
.	.	4B-\	4d/
=108	=108	=108	=108
0r	0r	4A/	2c/
.	.	4G/	.
.	.	1c	2e/
.	.	.	1d
.	.	2Bni\	.
=109	=109	=109	=109
1r	1r	[0c	0c
1AA	2r	.	.
.	2F/	.	.
=110	=110	=110	=110
2.C/	2.A/	0c]	1r
4BB-/	4G/	.	.
4C/	4A/	.	2r
4BB-/	4G/	.	.
4AA/	4F/	.	[2cc\
4GG/	4E/	.	.
=111	=111	=111	=111
2FF/	4D/	0r	2cc\]
.	4C/	.	.
2AA/	1F	.	2a/
1GG	.	.	1b-
.	2E/	.	.
=112	=112	=112	=112
0FF	1F	0r	1.a
.	2r	.	.
.	2A/	.	4g/
.	.	.	4f/
=113	=113	=113	=113
0r	2.c\	0r	2e/
.	.	.	2.a/
.	4B-\	.	.
.	4c\	.	.
.	4B-\	.	4g/
.	4A/	.	4f/
.	4G/	.	4e/
=114	=114	=114	=114
0r	2F/	0r	4d/
.	.	.	4c/
.	2A/	.	1f
.	1G	.	.
.	.	.	2e/
=115	=115	=115	=115
0r	[0F	2r	0f
.	.	1d	.
.	.	4c\	.
.	.	4B-\	.
=116	=116	=116	=116
2r	0F_	2c\	0r
1BB-	.	2d\	.
.	.	1D	.
4AA/	.	.	.
4GG/	.	.	.
=117	=117	=117	=117
2AA/	0F]	0r	2r
2BB-/	.	.	1d
1FF	.	.	.
.	.	.	4c/
.	.	.	4B-/
=118	=118	=118	=118
2r	1r	2r	2c/
1F	.	1A	2d/
.	1F	.	1A
4E\	.	4G/	.
4D\	.	4F/	.
=119	=119	=119	=119
2E\	[0c	2G/	2r
2F\	.	2A/	1a
1C	.	[1E	.
.	.	.	4g/
.	.	.	4f/
=120	=120	=120	=120
0C	0c_	1E]	2g/
.	.	.	2a/
.	.	1G	1e
=121	=121	=121	=121
2r	0c_	2r	0r
1F	.	1A	.
4E\	.	4G/	.
4D\	.	4F/	.
=122	=122	=122	=122
2E\	0c]	2G/	2r
2F\	.	2A/	1a
1C	.	[1E	.
.	.	.	4g/
.	.	.	4f/
=123	=123	=123	=123
1r	0c	2E/]	2g/
.	.	2F/	2a/
2r	.	2G/	2e/
2F\	.	4A/	2a/
.	.	4F/	.
=124	=124	=124	=124
2E-\	1B-	2G/	2g/
1D	.	2A/	1f
.	1A	2D/	.
2C/	.	2E/	2e/
=125	=125	=125	=125
2BB-/	1B-	1F	2d/
2D\	.	.	2.f/
1C	1A	1r	.
.	.	.	4g/
.	.	.	2e/
=126	=126	=126	=126
0BB-	0B-	[0F	2d/
.	.	.	1f
.	.	.	4e/
.	.	.	4d/
=127	=127	=127	=127
1r	[0A	0F]	0c
1FF	.	.	.
=128	=128	=128	=128
0AA	0A]	1E	1c
.	.	[1A	[1c
=129	=129	=129	=129
0AA	1r	0A_	1c]
.	[1F	.	1c
=130	=130	=130	=130
1FF	1F]	1A]	1c
[1BB-	1F	[1B-	[1d
=131	=131	=131	=131
1BB-]	1G	2B-\]	1d]
.	.	4A/	.
.	.	4G/	.
1AA	1A	1c	2c/
.	.	.	2e/
=132	=132	=132	=132
1BB-	2.D/	1F	2d/
.	.	.	2.f/
.	4E/	.	.
1AA	4F/	1r	.
.	4G/	.	4e/
.	[2A/	.	2c/
=133	=133	=133	=133
1BB-	2A/]	0r	2d/
.	1G	.	1g
2AA/	.	.	.
2FF/	[2F/	.	2a/
=134	=134	=134	=134
1GG	2F/]	2r	1b-
.	4E/	2.G/	.
.	4D/	.	.
1GG	1E	.	1b-
.	.	4A/	.
.	.	4B-\	.
.	.	4c\	.
=135	=135	=135	=135
[0FF	2F/	2d\	[0a
.	1c	2c\	.
.	.	1A	.
.	4B-\	.	.
.	4c\	.	.
=136	=136	=136	=136
0FF]	2d\	2r	0a]
.	2c\	1F	.
.	2.A/	.	.
.	.	4E/	.
.	8G/L	4F/	.
.	8A/J	.	.
=137	=137	=137	=137
1r	2B-\	2G/	1r
.	1A	2F/	.
1FF	.	1D	1a
.	4G/	.	.
.	4F/	.	.
=138	=138	=138	=138
[0AA	2E/	2r	1a
.	2.A/	2.f\	.
.	.	.	1a
.	4G/	4e\	.
.	2F/	2d\	.
=139	=139	=139	=139
0AA]	2E/	2c\	0a
.	2D/	1d	.
.	1E	.	.
.	.	2c#i\	.
=140	=140	=140	=140
0BB-	0D	0d	1.f
.	.	.	4e/
.	.	.	4d/
=141	=141	=141	=141
1AA	1r	2r	4c/
.	.	.	4A/
.	.	2.c\	2.a/
2r	[1A	.	.
.	.	4B-\	4g/
2D\	.	[2A/	2f/
=142	=142	=142	=142
2C/	1A]	4A/]	2e/
.	.	8G/L	.
.	.	8F/J	.
2AA/	.	1E	2c/
1BB-	1G	.	1d
.	.	2D/	.
=143	=143	=143	=143
0AA	0A	1E	2c/
.	.	.	1e
.	.	2C/	.
.	.	2D/	2f/
=144	=144	=144	=144
1r	1G	2E/	1g
.	.	2C/	.
2r	[1A	1F	2c/
2D\	.	.	[2f/
=145	=145	=145	=145
2C/	1A]	2F/	4f/]
.	.	.	4e/
2AA/	.	1E	2c/
1BB-	1G	.	1d
.	.	2D/	.
=146	=146	=146	=146
0AA	0A	1E	2c/
.	.	.	1e
.	.	2C/	.
.	.	2D/	2f/
=147	=147	=147	=147
1r	1G	2E/	2g/
.	.	2C/	2.e/
2r	1A	2.F/	.
.	.	.	4c/
2F\	.	.	[2c/
.	.	4E/	.
=148	=148	=148	=148
2E\	1G	2C/	4c/]
.	.	.	4d/
2C/	.	1c	4e/
.	.	.	4c/
1D	1F	.	[1f
.	.	2B-\	.
=149	=149	=149	=149
0C	0G	0c	2f/]
.	.	.	4e/
.	.	.	4d/
.	.	.	1e
=150	=150	=150	=150
2r	1F	1c	2f/
2FF/	.	.	2cc\
2GG/	1r	2r	2b-\
[2AA/	.	[2C/	2a/
=151	=151	=151	=151
2AA/]	1r	2C/]	2cc\
2BB-/	.	2D/	4b-\
.	.	.	4a/
2C/	2r	2E/	2g/
2FF/	2c\	2F/	2a/
=152	=152	=152	=152
2GG/	2B-\	2D/	2g/
1AA	2A/	1C	2f/
.	2c\	.	2a/
2BB-/	4B-\	2D/	4g/
.	4A/	.	4f/
=153	=153	=153	=153
2C/	2G/	2E/	2e/
2FF/	2A/	2F/	2cc\
2GG/	2G/	2D/	2b-\
[2AA/	2F/	[2C/	2a/
=154	=154	=154	=154
2AA/]	2A/	2C/]	2cc\
2BB-/	4G/	2D/	4b-\
.	4F/	.	4a/
2C/	2E/	2E/	2g/
2FF/	2c\	2F/	2a/
=155	=155	=155	=155
2r	2B-\	2G/	2g/
2.FF/	2A/	1C	2f/
.	2c\	.	2a/
4GG/	.	.	.
4AA/	4B-\	[2c\	4g/
4BB-/	4A/	.	4f/
=156	=156	=156	=156
2C/	2G/	2c\]	2e/
2D\	2F/	2B-\	1f
1C	1G	1c	.
.	.	.	2e/
=157	=157	=157	=157
0FFl	0Fl	0cl	0fl
==	==	==	==
*-	*-	*-	*-
!!!RDF**kern: l=long note in original notation
!!!RDF**kern: i=editorial accidental
!!!RDF**kern: V=start of tuplet marker
!!!RDF**kern: Z=end of tuplet marker
!!!ENC:	Chris Gage 11-19-2012
!!!END:	2012/11/19/
!!!EED:	Jesse Rodin
!!!EEV:	2012/12/15/
!!!ONB:	Translated from MusicXML and edited on 2012/12/15/ by Craig Sapp
!!muse2ps: T^@{OPR}^u^@{ONM}{. }@{OTL}^C^@{COM}^i2I150v85,85,85,150Q16c110
